X:838
T:Reel 838
M:4/4
K:Dmaj
L:1/8
AG|FGAF DEFD|EA,A,G, A,BAG|FGAF DEFG| (3fga ec dBAG|FGAF DEFD|E>A,A,G, E>A,A,G,|FGAF DEFA|faec d2|ag|fddc dfaf|edcd efge|fddc dfaf|ec (3ABc d2ag|fddc dfaf|edcd efge|fdef gbag| (3fga ec dBAG|
